SVG_Azure_Grouped/Generic/Configuration.svg

<?xml version="1.0" encoding="UTF-8" standalone="no"?>
<!-- Generated by Microsoft Visio, SVG Export Configuration.svg Page-1 -->

<svg
   xmlns:dc="http://purl.org/dc/elements/1.1/"
   xmlns:cc="http://creativecommons.org/ns#"
   xmlns:rdf="http://www.w3.org/1999/02/22-rdf-syntax-ns#"
   xmlns:svg="http://www.w3.org/2000/svg"
   xmlns="http://www.w3.org/2000/svg"
   xmlns:sodipodi="http://sodipodi.sourceforge.net/DTD/sodipodi-0.dtd"
   xmlns:inkscape="http://www.inkscape.org/namespaces/inkscape"
   width="0.78735989in"
   height="0.70874894in"
   viewBox="0 0 56.689997 51.029877"
   xml:space="preserve"
   class="st2"
   version="1.1"
   id="svg24"
   sodipodi:docname="Configuration.svg"
   style="font-size:12px;overflow:visible;color-interpolation-filters:sRGB;fill:none;fill-rule:evenodd;stroke-linecap:square;stroke-miterlimit:3"
   inkscape:version="0.92.5 (2060ec1f9f, 2020-04-08)"><metadata
   id="metadata30"><rdf:RDF><cc:Work
       rdf:about=""><dc:format>image/svg+xml</dc:format><dc:type
         rdf:resource="http://purl.org/dc/dcmitype/StillImage" /></cc:Work></rdf:RDF></metadata><defs
   id="defs28" /><sodipodi:namedview
   pagecolor="#ffffff"
   bordercolor="#666666"
   borderopacity="1"
   objecttolerance="10"
   gridtolerance="10"
   guidetolerance="10"
   inkscape:pageopacity="0"
   inkscape:pageshadow="2"
   inkscape:window-width="640"
   inkscape:window-height="480"
   id="namedview26"
   showgrid="false"
   inkscape:zoom="1.3879401"
   inkscape:cx="37.795279"
   inkscape:cy="34.019551"
   inkscape:window-x="0"
   inkscape:window-y="0"
   inkscape:window-maximized="0"
   inkscape:current-layer="svg24" />
	<style
   type="text/css"
   id="style2">
	<![CDATA[
		.st1 {fill:#000000;stroke:none;stroke-linecap:butt;stroke-width:38.25}
		.st2 {fill:none;fill-rule:evenodd;font-size:12px;overflow:visible;stroke-linecap:square;stroke-miterlimit:3}
	]]>
	</style>

	<g
   id="g22"
   transform="translate(-38.25,-38.248358)">
		<title
   id="title4">Page-1</title>
		<g
   id="group16654-1"
   transform="translate(38.25,-38.2518)">
			<title
   id="title6">Configuration.16654</title>
			<g
   id="group16655-2">
				<title
   id="title8">Sheet.16655</title>
				<g
   id="shape16656-3"
   transform="translate(6.9264)">
					<title
   id="title10">Sheet.16656</title>
					<path
   d="m 28.51,80.15 c 1.95,0 3.54,1.63 3.54,3.64 0,2.01 -1.59,3.65 -3.54,3.65 -1.96,0 -3.55,-1.64 -3.55,-3.65 0,-2.01 1.59,-3.64 3.55,-3.64 z m 0,-3.65 A 7.0869909,7.2900018 -180 1 0 28.5,91.08 7.0869909,7.2900018 -180 0 0 28.51,76.5 Z m 7.08,40.1 c 1.96,0 3.55,1.63 3.55,3.64 0,2.01 -1.59,3.65 -3.55,3.65 -1.95,0 -3.54,-1.64 -3.54,-3.65 0,-2.01 1.59,-3.64 3.54,-3.64 z m 0,-3.65 a 7.0869891,7.29 -180 1 0 0,14.58 7.0869891,7.29 -180 0 0 0,-14.58 z M 7.25,98.37 c 1.95,0 3.54,1.64 3.54,3.65 0,2.01 -1.59,3.64 -3.54,3.64 -1.96,0 -3.55,-1.63 -3.55,-3.64 0,-2.01 1.59,-3.65 3.55,-3.65 z m 0,-3.64 A 7.08661,7.28961 -180 1 0 7.24,109.3 7.08661,7.28961 -180 0 0 7.25,94.73 Z"
   class="st1"
   id="path12"
   inkscape:connector-curvature="0"
   style="fill:#000000;stroke:none;stroke-width:38.25;stroke-linecap:butt" />
				</g>
				<g
   id="shape16657-5"
   transform="translate(0,-5.46356)">
					<title
   id="title15">Sheet.16657</title>
					<path
   d="m 0,87.43 h 28.35 v 3.65 H 0 Z m 42.52,0 h 14.17 v 3.65 H 42.52 Z M 0,105.66 h 7.09 v 3.64 H 0 Z m 21.26,0 h 35.43 v 3.64 H 21.26 Z m 28.35,18.22 h 7.08 v 3.65 h -7.08 z m -49.61,0 h 35.43 v 3.65 H 0 Z"
   class="st1"
   id="path17"
   inkscape:connector-curvature="0"
   style="fill:#000000;stroke:none;stroke-width:38.25;stroke-linecap:butt" />
				</g>
			</g>
		</g>
	</g>
</svg>

<?xml version="1.0" encoding="UTF-8" standalone="no"?>
<!DOCTYPE svg PUBLIC "-//W3C//DTD SVG 1.1//EN" "http://www.w3.org/Graphics/SVG/1.1/DTD/svg11.dtd">
<!-- Generated by Microsoft Visio, SVG Export Configuration.svg Page-1 -->
<svg xmlns="http://www.w3.org/2000/svg" xmlns:xlink="http://www.w3.org/1999/xlink" xmlns:ev="http://www.w3.org/2001/xml-events"
		width="1.8499in" height="1.77121in" viewBox="0 0 133.193 127.527" xml:space="preserve" color-interpolation-filters="sRGB"
		class="st2">
	<style type="text/css">
	<![CDATA[
		.st1 {fill:#000000;stroke:none;stroke-linecap:butt;stroke-width:38.25}
		.st2 {fill:none;fill-rule:evenodd;font-size:12px;overflow:visible;stroke-linecap:square;stroke-miterlimit:3}
	]]>
	</style>

	<g>
		<title>Page-1</title>
		<g id="group16271-1" transform="translate(38.25,-38.2518)">
			<title>Configuration.16271</title>
			<g id="group16272-2">
				<title>Sheet.16272</title>
				<g id="shape16273-3" transform="translate(6.9264,1.42109E-14)">
					<title>Sheet.16273</title>
					<path d="M28.51 80.15 C30.46 80.15 32.05 81.78 32.05 83.79 C32.05 85.8 30.46 87.44 28.51 87.44 C26.55 87.44 24.96
								 85.8 24.96 83.79 C24.96 81.78 26.55 80.15 28.51 80.15 ZM28.51 76.5 A7.08661 7.28961 -180 1 0 28.5
								 91.08 A7.08661 7.28961 -180 0 0 28.51 76.5 ZM35.59 116.6 C37.55 116.6 39.14 118.23 39.14 120.24
								 C39.14 122.25 37.55 123.89 35.59 123.89 C33.64 123.89 32.05 122.25 32.05 120.24 C32.05 118.23 33.64
								 116.6 35.59 116.6 ZM35.59 112.95 A7.08661 7.28961 -180 1 0 35.59 127.53 A7.08661 7.28961 -180 0
								 0 35.59 112.95 ZM7.25 98.37 C9.2 98.37 10.79 100.01 10.79 102.02 C10.79 104.03 9.2 105.66 7.25 105.66
								 C5.29 105.66 3.7 104.03 3.7 102.02 C3.7 100.01 5.29 98.37 7.25 98.37 ZM7.25 94.73 A7.08661 7.28961
								 -180 1 0 7.24 109.3 A7.08661 7.28961 -180 0 0 7.25 94.73 Z" class="st1"/>
				</g>
				<g id="shape16274-5" transform="translate(0,-5.46356)">
					<title>Sheet.16274</title>
					<path d="M0 87.43 L28.35 87.43 L28.35 91.08 L0 91.08 L0 87.43 ZM42.52 87.43 L56.69 87.43 L56.69 91.08 L42.52
								 91.08 L42.52 87.43 ZM0 105.66 L7.09 105.66 L7.09 109.3 L0 109.3 L0 105.66 ZM21.26 105.66 L56.69
								 105.66 L56.69 109.3 L21.26 109.3 L21.26 105.66 ZM49.61 123.88 L56.69 123.88 L56.69 127.53 L49.61
								 127.53 L49.61 123.88 ZM0 123.88 L35.43 123.88 L35.43 127.53 L0 127.53 L0 123.88 Z" class="st1"/>
				</g>
			</g>
		</g>
	</g>
</svg>
